svg/u1f97a.svg

<svg viewBox="0 0 128 128" xmlns="http://www.w3.org/2000/svg">
  <defs>
    <radialGradient id="face_1_" cx="63.6" cy="62.9" gradientUnits="userSpaceOnUse" r="56.9597">
      <stop offset="0.5" stop-color="#FDE030"/>
      <stop offset="0.92" stop-color="#F7C02B"/>
      <stop offset="1" stop-color="#F4A223"/>
    </radialGradient>
  </defs>
  <path id="face" d="M63.6,118.8 C35.7,118.8 5.6,101.3 5.6,62.9 C5.6,24.5 35.7,7 63.6,7 C79.1,7 93.4,12.1 104,21.4 C115.5,31.6 121.6,46 121.6,62.9 C121.6,79.8 115.5,94.1 104,104.3 C93.4,113.6 79,118.8 63.6,118.8 Z" fill="url(#face_1_)"/>
  <path d="M111.49,29.67 C116.82,38.27 119.6,48.51 119.6,59.9 C119.6,76.8 113.5,91.1 102,101.3 C91.4,110.6 77,115.8 61.6,115.8 C43.54,115.8 24.6,108.45 13.42,92.86 C24.18,110.52 44.42,118.8 63.6,118.8 C79,118.8 93.4,113.6 104,104.3 C115.5,94.1 121.6,79.8 121.6,62.9 C121.6,50.16 118.13,38.84 111.49,29.67 Z" fill="#EB8F00"/>
  <path d="M71,101 C70.43,101 69.86,100.88 69.34,100.64 C65.66,99.01 61.47,98.98 57.78,100.58 C55.81,101.57 53.4,100.77 52.41,98.8 C51.42,96.83 52.22,94.42 54.19,93.43 L54.19,93.43 C60.06,90.77 66.77,90.75 72.66,93.36 C74.67,94.28 75.56,96.65 74.64,98.66 C73.99,100.09 72.57,101 71,101 Z" fill="#422B0D"/>
  <path d="M43,47.7 C52.58,47.73 60.33,55.52 60.3,65.1 C60.27,74.68 52.48,82.43 42.9,82.4 C33.32,82.37 25.57,74.58 25.6,65 C25.66,55.43 33.43,47.71 43,47.7" fill="#FFFFFF"/>
  <path d="M58.1,62.8 A15.4 15.4 0 1 1 27.3,62.8 A15.4 15.4 0 1 1 58.1,62.8 Z" fill="#422B0D"/>
  <path d="M50.116,66.949 C50.968,67.965 50.767,69.536 49.667,70.459 C48.568,71.382 46.985,71.308 46.133,70.292 C45.281,69.277 45.482,67.706 46.582,66.783 C47.681,65.86 49.264,65.934 50.116,66.949 Z" fill="#FFFFFF"/>
  <path d="M45.913,52.638 C48.32,55.872 47.039,60.9 43.052,63.868 C39.064,66.836 33.88,66.62 31.473,63.386 C29.066,60.152 30.347,55.124 34.334,52.156 C38.321,49.188 43.505,49.404 45.913,52.638 Z" fill="#FFFFFF"/>
  <path d="M86,47.7 C95.58,47.73 103.33,55.52 103.3,65.1 C103.27,74.68 95.48,82.43 85.9,82.4 C76.32,82.37 68.57,74.58 68.6,65 C68.66,55.43 76.43,47.71 86,47.7" fill="#FFFFFF"/>
  <path d="M101.1,62.8 A15.4 15.4 0 1 1 70.3,62.8 A15.4 15.4 0 1 1 101.1,62.8 Z" fill="#422B0D"/>
  <path d="M93.196,66.888 C94.048,67.903 93.847,69.475 92.747,70.398 C91.648,71.321 90.065,71.246 89.213,70.231 C88.361,69.216 88.562,67.645 89.661,66.722 C90.761,65.798 92.344,65.873 93.196,66.888 Z" fill="#FFFFFF"/>
  <path d="M88.924,52.645 C91.331,55.879 90.05,60.907 86.063,63.875 C82.075,66.843 76.891,66.627 74.484,63.393 C72.077,60.159 73.358,55.131 77.345,52.163 C81.332,49.195 86.516,49.411 88.924,52.645 Z" fill="#FFFFFF"/>
  <path d="M27.4,39.8 C25.2,40.2 25.1,43.4 27.5,43.5 C32.8,43.57 37.92,41.6 41.8,38 C43.28,36.72 44.53,35.2 45.5,33.5 C46.08,32.67 45.88,31.53 45.05,30.95 C44.22,30.37 43.08,30.57 42.5,31.4 L42.4,31.5 C38.48,35.88 33.19,38.81 27.4,39.8 Z" fill="#422B0D"/>
  <path d="M84.5,31.4 C83.92,30.57 82.78,30.37 81.95,30.95 C81.12,31.53 80.92,32.67 81.5,33.5 C82.47,35.2 83.72,36.72 85.2,38 C89.1,41.57 94.21,43.54 99.5,43.5 C102,43.4 101.8,40.2 99.6,39.8 C93.74,38.84 88.41,35.87 84.5,31.4 L84.5,31.4" fill="#422B0D"/>
</svg>

<svg viewBox="0 0 128 128" xmlns="http://www.w3.org/2000/svg">
  <g id="gold">
    <radialGradient id="face_1_" cx="63.6" cy="1400.9" gradientTransform="matrix(1 0 0 1 0 -1338)" gradientUnits="userSpaceOnUse" r="56.9597">
      <stop offset="0.5" stop-color="#FDE030"/>
      <stop offset="0.92" stop-color="#F7C02B"/>
      <stop offset="1" stop-color="#F4A223"/>
    </radialGradient>
    <path id="face" d="M63.6,118.8c-27.9,0-58-17.5-58-55.9S35.7,7,63.6,7c15.5,0,29.8,5.1,40.4,14.4 c11.5,10.2,17.6,24.6,17.6,41.5s-6.1,31.2-17.6,41.4C93.4,113.6,79,118.8,63.6,118.8z" fill="url(#face_1_)"/>
    <path d="M111.49,29.67c5.33,8.6,8.11,18.84,8.11,30.23c0,16.9-6.1,31.2-17.6,41.4 c-10.6,9.3-25,14.5-40.4,14.5c-18.06,0-37-7.35-48.18-22.94c10.76,17.66,31,25.94,50.18,25.94c15.4,0,29.8-5.2,40.4-14.5 c11.5-10.2,17.6-24.5,17.6-41.4C121.6,50.16,118.13,38.84,111.49,29.67z" fill="#EB8F00"/>
  </g>
  <g id="facial_expressions">
    <g id="pleading-face">
      <path d="M71,101c-0.57,0-1.14-0.12-1.66-0.36c-3.68-1.63-7.87-1.66-11.56-0.06 c-1.97,0.99-4.38,0.19-5.37-1.78c-0.99-1.97-0.19-4.38,1.78-5.37l0,0c5.87-2.66,12.58-2.68,18.47-0.07 c2.01,0.92,2.9,3.29,1.98,5.3C73.99,100.09,72.57,101,71,101z" fill="#422B0D"/>
      <g id="eyes">
        <path d="M43,47.7c9.58,0.03,17.33,7.82,17.3,17.4s-7.82,17.33-17.4,17.3c-9.58-0.03-17.33-7.82-17.3-17.4 C25.66,55.43,33.43,47.71,43,47.7" fill="#FFFFFF"/>
        <circle cx="42.7" cy="62.8" fill="#422B0D" r="15.4"/>
        <ellipse cx="48.13" cy="68.62" fill="#FFFFFF" rx="2.6" ry="2.4" transform="matrix(0.7659 -0.6429 0.6429 0.7659 -32.8541 47.0076)"/>
        <ellipse cx="38.69" cy="58.01" fill="#FFFFFF" rx="9" ry="7.3" transform="matrix(0.8022 -0.5971 0.5971 0.8022 -26.9821 34.5782)"/>
        <path d="M86,47.7c9.58,0.03,17.33,7.82,17.3,17.4c-0.03,9.58-7.82,17.33-17.4,17.3 c-9.58-0.03-17.33-7.82-17.3-17.4C68.66,55.43,76.43,47.71,86,47.7" fill="#FFFFFF"/>
        <circle cx="85.7" cy="62.8" fill="#422B0D" r="15.4"/>
        <ellipse cx="91.21" cy="68.56" fill="#FFFFFF" rx="2.6" ry="2.4" transform="matrix(0.7659 -0.6429 0.6429 0.7659 -22.7305 74.6885)"/>
        <ellipse cx="81.7" cy="58.02" fill="#FFFFFF" rx="9" ry="7.3" transform="matrix(0.8022 -0.5971 0.5971 0.8022 -18.4797 60.2586)"/>
      </g>
    </g>
    <g id="eyebrows">
      <path d="M27.4,39.8c-2.2,0.4-2.3,3.6,0.1,3.7c5.3,0.07,10.42-1.9,14.3-5.5c1.48-1.28,2.73-2.8,3.7-4.5 c0.58-0.83,0.38-1.97-0.45-2.55c-0.83-0.58-1.97-0.38-2.55,0.45l-0.1,0.1C38.48,35.88,33.19,38.81,27.4,39.8z" fill="#422B0D"/>
      <path d="M84.5,31.4c-0.58-0.83-1.72-1.03-2.55-0.45c-0.83,0.58-1.03,1.72-0.45,2.55 c0.97,1.7,2.22,3.22,3.7,4.5c3.9,3.57,9.01,5.54,14.3,5.5c2.5-0.1,2.3-3.3,0.1-3.7C93.74,38.84,88.41,35.87,84.5,31.4L84.5,31.4" fill="#422B0D"/>
    </g>
  </g>
</svg>
